!!! OTL: Berkowitz324
!!! Chapter: 1
!!! Section: III
!!! Page: 78
!!! Mode: 
!!! Encoder: DJB
**kern
*staff1
*I"Piano
=1-
*clefG2
*k[f#c#g#]
*f#:
*met(c)
*M4/4
4a/
4.ff#\
8aa\L
8gg#\
8ee#\J
=2
4ff#\
8ee\L
8dd\J
4cc#\
4ff#\
=3
4.dd\
8cc#\
8b\L
8a#\
8b\
8dd\J
=4
4cc#\
4a/
4f#/
4cc#\
=5
4a#/
4b\
8cc#\L
8ee\
8dd\
8cc#\J
=6
4ff#\
4dd\
4b\
4gn/
=7
!!linebreak:original
4f#/
4dd\
8cc#\L
8b\
8a#\
8cc#\J
=8
4ee\
4dd\
4r
4ee#\
=9
4.ff#\
8aa\
8gg#\L
8ff#\
8ee#\
8gg#\J
=10
4ff#\
4cc#\
4dd\
4b\
=11
4.a/
8cc#\
8b/L
8a/
8g#/
8a/J
=12
2.f#/
4r
==
*-
